nextApp/public/icons/mail.svg

<svg width="32" height="32" viewBox="0 0 32 32" fill="none" xmlns="http://www.w3.org/2000/svg">
<path d="M4.66667 7.33366L15.1901 15.381C15.6681 15.7466 16.3319 15.7466 16.8099 15.381L27.3333 7.33366M5.33333 25.3337H26.6667C27.403 25.3337 28 24.7367 28 24.0003V8.00033C28 7.26395 27.403 6.66699 26.6667 6.66699H5.33333C4.59695 6.66699 4 7.26395 4 8.00033V24.0003C4 24.7367 4.59695 25.3337 5.33333 25.3337Z" stroke="white" stroke-width="2" stroke-linecap="round"/>
</svg>

<svg xmlns="http://www.w3.org/2000/svg" width="32" height="32" fill="none" viewBox="0 0 32 32"><path stroke="#fff" stroke-linecap="round" stroke-width="2" d="M4.667 7.334 15.19 15.38a1.33 1.33 0 0 0 1.62 0l10.523-8.047m-22 18h21.334c.736 0 1.333-.597 1.333-1.334V8c0-.736-.597-1.333-1.333-1.333H5.333C4.597 6.667 4 7.264 4 8v16c0 .737.597 1.334 1.333 1.334Z"/></svg>
